packages/vibrant-icons/assets/icons/DocumentAdd/Regular.svg

<svg fill="none" height="24" viewBox="0 0 24 24" width="24" xmlns="http://www.w3.org/2000/svg"><g fill="#0c0c0c"><path d="m3.6499.900391c-.13807 0-.25.111929-.25.249999v21.70001c0 .1381.11193.25.25.25h10.1001v-2.2h-8.1501v-17.80001h7.777l.023.023v4.977h4.9765l.0235.0235v4.87611h2.2v-5.78711l-.029-.0295-6.2525-6.253998-.0295-.029001z"/><path d="m18.2749 20.4754v3.125h2.2v-3.125h3.125v-2.2h-3.125v-3.125h-2.2v3.125h-3.125v2.2z"/></g></svg>

<svg xmlns="http://www.w3.org/2000/svg" width="24" height="24" fill="none"><g fill="#0c0c0c"><path d="M3.65.9a.25.25 0 0 0-.25.25v21.7c0 .138.112.25.25.25h10.1v-2.2H5.6V3.1h7.777l.023.023V8.1h4.976l.024.024V13h2.2V7.213l-.03-.03L14.319.93 14.288.9z"/><path d="M18.275 20.475V23.6h2.2v-3.125H23.6v-2.2h-3.125V15.15h-2.2v3.125H15.15v2.2z"/></g></svg>
